brandFactory_export/1.Light/Editar1_1Light.svg

<?xml version="1.0" encoding="UTF-8"?>
<svg width="24px" height="24px" viewBox="0 0 24 24" version="1.1" xmlns="http://www.w3.org/2000/svg" xmlns:xlink="http://www.w3.org/1999/xlink">
    <title>1.Light/Editar1_1Light</title>
    <g id="Symbols" stroke="none" stroke-width="1" fill="none" fill-rule="evenodd">
        <g id="1.Light/Editar1_1Light" fill="#5CB615" fill-rule="nonzero">
            <path d="M23.6235294,3.29411765 C23.6134454,2.42352941 23.2705882,1.58655462 22.6655462,0.961344538 C22.0773109,0.389915966 21.3042017,0.0504201681 20.4840336,0.00336134454 C19.5798319,-0.0268907563 18.702521,0.319327731 18.0672269,0.961344538 L17.4151261,1.55630252 L5.00504202,1.55630252 C1.92268908,1.52941176 0.00672268908,3.33445378 0.00672268908,6.22521008 L0.00672268908,18.9781513 C-0.0571428571,20.2252101 0.413445378,21.4420168 1.29747899,22.3260504 C2.31596639,23.2336134 3.65714286,23.697479 5.02184874,23.6168067 L16.1344538,23.6168067 C17.502521,23.7008403 18.8470588,23.2336134 19.8722689,22.3260504 C20.7596639,21.4420168 21.2268908,20.2252101 21.1663866,18.9781513 L21.1663866,6.94789916 L22.6521008,5.55966387 C23.2638655,4.96470588 23.6134454,4.14789916 23.6235294,3.29411765 Z M19.7613445,18.9747899 C19.8117647,19.8420168 19.4991597,20.692437 18.9008403,21.3210084 C18.1277311,21.9697479 17.1294118,22.2957983 16.1210084,22.2218487 L5.00504202,22.2218487 C3.99663866,22.2957983 2.99831933,21.9731092 2.22521008,21.3210084 C1.63697479,20.6857143 1.33445378,19.8386555 1.39159664,18.9747899 L1.39159664,6.22521008 C1.39159664,4.17142857 2.68235294,2.91764706 5.01848739,2.91764706 L15.8823529,2.91764706 L10.4672269,7.69747899 C10.2823529,7.86890756 10.1378151,8.08403361 10.0504202,8.32268908 L8.77310924,12.1411765 C8.58823529,12.6588235 8.72268908,13.2336134 9.11932773,13.6134454 C9.38487395,13.892437 9.7512605,14.0470588 10.1344538,14.0436975 C10.2857143,14.0638655 10.4403361,14.0638655 10.5915966,14.0436975 L14.4268908,12.7798319 C14.6117647,12.7159664 14.7798319,12.6184874 14.9277311,12.487395 C14.9277311,12.487395 17.5798319,10.1546218 19.7478992,8.21176471 L19.7613445,18.9747899 Z M10.0369748,12.5848739 L11.3310924,8.7394958 C13.4016807,6.94789916 18.6789916,2.3092437 19.0554622,1.94957983 C19.3915966,1.59663866 19.8588235,1.39495798 20.3462185,1.39495798 L20.4302521,1.39495798 C21.4386555,1.44537815 22.2285714,2.27563025 22.2352941,3.28403361 C22.2319328,3.77142857 22.0302521,4.23529412 21.6806723,4.57478992 C21.2638655,4.96470588 14.9848739,10.5210084 13.9966387,11.394958 L10.1613445,12.6588235 C10.1613445,12.6554622 10.0369748,12.5848739 10.0369748,12.5848739 L10.0369748,12.5848739 Z" id="Editar1_1Light"></path>
        </g>
    </g>
</svg>

<svg width="24" height="24" viewBox="0 0 24 24" xmlns="http://www.w3.org/2000/svg"><path d="M23.624 3.294a3.415 3.415 0 00-.958-2.333 3.408 3.408 0 00-2.182-.958 3.247 3.247 0 00-2.417.958l-.652.595H5.005C1.923 1.53.007 3.334.007 6.226v12.752a4.418 4.418 0 001.29 3.348 5.142 5.142 0 003.725 1.29h11.112a5.165 5.165 0 003.738-1.29 4.421 4.421 0 001.294-3.348V6.948l1.486-1.388a3.215 3.215 0 00.972-2.266zm-3.863 15.68a3.141 3.141 0 01-.86 2.347 3.888 3.888 0 01-2.78.9H5.005a3.872 3.872 0 01-2.78-.9 3.147 3.147 0 01-.833-2.346V6.225c0-2.054 1.29-3.307 3.626-3.307h10.864l-5.415 4.78c-.185.17-.33.386-.417.625L8.773 12.14a1.388 1.388 0 00.346 1.472c.266.28.632.434 1.015.43.152.02.306.02.458 0l3.835-1.263c.185-.064.353-.162.5-.293 0 0 2.653-2.332 4.82-4.275l.014 10.763zm-9.724-6.39l1.294-3.845c2.07-1.791 7.348-6.43 7.724-6.79a1.785 1.785 0 011.291-.554h.084c1.009.05 1.799.88 1.805 1.889a1.818 1.818 0 01-.554 1.29c-.417.39-6.696 5.947-7.684 6.821l-3.836 1.264c0-.004-.124-.074-.124-.074z" fill="#5CB615" fill-rule="nonzero"/></svg>
